img/show_password.svg

<svg width="24" height="16" viewBox="0 0 24 16" fill="none" xmlns="http://www.w3.org/2000/svg">
<path d="M12 16C19.1647 16 24 9.88921 24 7.99534C24 6.11079 19.1559 0 12 0C4.94118 0 0 6.11079 0 7.99534C0 9.88921 4.93235 16 12 16ZM12.0088 13.0892C9.31765 13.0892 7.17353 10.7662 7.16471 8.00466C7.15588 5.14985 9.31765 2.91079 12.0088 2.91079C14.6824 2.91079 16.8441 5.15918 16.8441 8.00466C16.8441 10.7662 14.6824 13.0892 12.0088 13.0892ZM12.0088 9.89854C12.9971 9.89854 13.8176 9.04023 13.8176 8.00466C13.8176 6.95977 12.9971 6.09213 12.0088 6.09213C11.0029 6.09213 10.1912 6.95977 10.1912 8.00466C10.1912 9.04023 11.0029 9.89854 12.0088 9.89854Z" fill="#AAB8C6"/>
</svg>

<svg width="24" height="16" fill="none" xmlns="http://www.w3.org/2000/svg"><path d="M12 16c7.165 0 12-6.11 12-8.005C24 6.111 19.156 0 12 0 4.941 0 0 6.11 0 7.995 0 9.89 4.932 16 12 16zm.009-2.91c-2.691 0-4.835-2.324-4.844-5.085-.01-2.855 2.153-5.094 4.844-5.094 2.673 0 4.835 2.248 4.835 5.094 0 2.761-2.162 5.084-4.835 5.084zm0-3.191c.988 0 1.809-.859 1.809-1.894 0-1.045-.82-1.913-1.81-1.913-1.005 0-1.817.868-1.817 1.913 0 1.035.812 1.894 1.818 1.894z" fill="#AAB8C6"/></svg>
